review/refactor-update-stylelint/icons/illustrative/food/db_ic_il_restaurant.svg

<svg id="icon" height="64" viewBox="0 0 64 64" width="64" xmlns="http://www.w3.org/2000/svg"><g fill="none" fill-rule="evenodd" transform="translate(8 8)"><path d="m47 16a1 1 0 0 1 .999 1.051l-.013.114-5 30a1 1 0 0 1 -.865.828l-.121.007h-12a1 1 0 0 1 -.117-1.993l.117-.007h11.152l4.667-28h-15.819a1 1 0 0 1 -.993-.883l-.007-.117a1 1 0 0 1 .883-.993l.117-.007zm-23.017-16a1 1 0 0 1 1.011.89l.006.11v44.196a2.886 2.886 0 0 1 -2.407 2.764l-.18.026-.147.011-.112.002c-1.53-.056-2.737-1.296-2.773-2.776l.001-18.085a.147.147 0 0 0 -.066-.126l-.024-.008-.72-.005c-1.419-.058-2.535-1.208-2.573-2.578l.035-15.782c.008-4.59 3.215-8.339 7.466-8.622l.247-.013.235-.004zm-11.983 0a1 1 0 0 1 .993.884l.007.116v10.753a6.088 6.088 0 0 1 -3.5 5.336l-.194.085v27.888a2.85 2.85 0 0 1 -1.234 2.437l-.163.104a2.848 2.848 0 0 1 -2.9 0 2.842 2.842 0 0 1 -1.396-2.32l-.001-28.146-.19-.087a6.09 6.09 0 0 1 -3.41-5.079l-.012-.247v-10.724a1 1 0 0 1 1.993-.116l.007.116v10.696a4.077 4.077 0 0 0 2.9 3.79 1 1 0 0 1 .705.84l.007.119v28.68a.848.848 0 0 0 1.279.757.85.85 0 0 0 .411-.663l.004-.125v-28.624a1 1 0 0 1 .727-.962 4.082 4.082 0 0 0 2.956-3.584l.011-.201v-10.723a1 1 0 0 1 1-1zm10.999 2.09-.062.012c-2.734.53-4.784 3.084-4.898 6.274l-.005.267-.035 15.651a.686.686 0 0 0 .528.695l.091.011.72.005c1.12.046 2.003.947 2.043 2.02v18.067a.88.88 0 0 0 .737.898l.078.007.027-.001a.876.876 0 0 0 .758-.71l.017-.117.002-.112-.001-42.967zm-14.63-2.09a1 1 0 0 1 .994.884l.006.116v11.021a1 1 0 0 1 -1.993.117l-.007-.117v-11.02a1 1 0 0 1 1-1zm-3.731 0a1 1 0 0 1 .993.884l.007.116v11.021a1 1 0 0 1 -1.994.117l-.006-.117v-11.02a1 1 0 0 1 1-1z" fill="var(--db-icon-color, currentColor)" fill-rule="nonzero"/><path d="m42 22a1 1 0 0 1 .117 1.993l-.117.007h-12a1 1 0 0 1 -.117-1.993l.117-.007z" fill="var(--db-icon-pulse-color, #EC0016)"/></g></svg>

<svg id="icon" height="64" viewBox="0 0 64 64" width="64" xmlns="http://www.w3.org/2000/svg"><g fill="none" fill-rule="evenodd" transform="translate(8 8)"><path d="M47 16a1 1 0 0 1 .999 1.051l-.013.114-5 30a1 1 0 0 1-.865.828L42 48H30a1 1 0 0 1-.117-1.993L30 46h11.152l4.667-28H30a1 1 0 0 1-.993-.883L29 17a1 1 0 0 1 .883-.993L30 16h17ZM23.983 0a1 1 0 0 1 1.011.89L25 1v44.196a2.886 2.886 0 0 1-2.407 2.764l-.18.026-.147.011-.112.002c-1.53-.056-2.737-1.296-2.773-2.776l.001-18.085a.147.147 0 0 0-.066-.126l-.024-.008-.72-.005c-1.419-.058-2.535-1.208-2.573-2.578l.035-15.782C16.042 4.049 19.249.3 23.5.017l.247-.013.235-.004ZM12 0a1 1 0 0 1 .993.884L13 1v10.753a6.088 6.088 0 0 1-3.5 5.336l-.194.085v27.888a2.85 2.85 0 0 1-1.234 2.437l-.163.104a2.848 2.848 0 0 1-2.9 0 2.842 2.842 0 0 1-1.396-2.32l-.001-28.146-.19-.087a6.09 6.09 0 0 1-3.41-5.079L0 11.724V1A1 1 0 0 1 1.993.884L2 1v10.696a4.077 4.077 0 0 0 2.9 3.79 1 1 0 0 1 .705.84l.007.119v28.68a.848.848 0 0 0 1.279.757.85.85 0 0 0 .411-.663l.004-.125V16.47a1 1 0 0 1 .727-.962 4.082 4.082 0 0 0 2.956-3.584l.011-.201V1a1 1 0 0 1 1-1Zm10.999 2.09-.062.012c-2.734.53-4.784 3.084-4.898 6.274l-.005.267-.035 15.651a.686.686 0 0 0 .528.695l.091.011.72.005c1.12.046 2.003.947 2.043 2.02v18.067a.88.88 0 0 0 .737.898l.078.007.027-.001a.876.876 0 0 0 .758-.71l.017-.117.002-.112-.001-42.967ZM8.369 0a1 1 0 0 1 .994.884L9.369 1v11.021a1 1 0 0 1-1.993.117l-.007-.117V1.001a1 1 0 0 1 1-1ZM4.638 0a1 1 0 0 1 .993.884L5.638 1v11.021a1 1 0 0 1-1.994.117l-.006-.117V1.001a1 1 0 0 1 1-1Z" fill="var(--db-icon-color, currentColor)" fill-rule="nonzero"/><path d="M42 22a1 1 0 0 1 .117 1.993L42 24H30a1 1 0 0 1-.117-1.993L30 22h12Z" fill="var(--db-icon-pulse-color, #EC0016)"/></g></svg>
